X: 30504
T: Oliver Curve, The
R: reel
M: 4/4
K: Dmajor
FAAF AAdc|ADEF FAED|~D2 BA AGGF|GAAF ~E3G|
~F2AB ~A2dc|ADEF FAED|BAGF GAdz|1 FGGF D2 AG:|2 FGGF DAAF||
|:EEEF FDDA|FFFG GDDG|GGGA AAAF|EEEd cAED|EEEF FDzA|
FFFG GDzG|1 GGGA AAAF|EDDd cAED:|2 GDDA DDd2|dAdf ~e3z||

